!!!Genre:	Freylekhs
!!!Mode:	Altered Dorian
!!!Listening/dance:	dance
!!!One_Mode:	yes
**kern
*thru
*part1
*staff1
*clefG2
*k[b-]
*g:dor
*M2/4
=1-
*>A
16dLL
16g
16f#X
16gJJ
16aLL
(<8qcc/
16b-)
16a
16gJJ
=2
16eeLL
16dd
16cc#X
16b-JJ
16cc#LL
16b-
16a
16gJJ
=3
16gLL
16ff
16ee
16ddJJ
16cc#XLL
16dd
16ee
16cc#JJ
=4
(>8qee/
4dd)
4gg^
=5
16dLL
16g
16f#X
16gJJ
16aLL
16b-
16a
16gJJ
=6
16eeLL
16dd
16cc#X
16b-JJ
16cc#LL
16b-
16a
16gJJ
=7
32b-LLL
32ccnJ
16b-
16a
16gJJ
16f#XLL
16d
16f#
16aJJ
=8
4g
8r
==
8dd
=9
2gg
=10
2gg
=11!|:
*>B
4gg
4gg
=12
4gg
8r
8gg
=13
(>16ggLL
16ff)
(>16ff
16eeJJ)
4gg
=14
(>16ggLL
16ff)
(>16ff
16eeJJ)
(>8qgg/
8.ffL)
16eeJk
=15
16ddLL
16ff
16ee
16ddJJ
16cc#XLL
16dd
16ee
16cc#JJ
=16
(>8qee/
4.dd)
8dd
=17
(>16ddLL
16cc#X)
(>16cc#
16b-JJ)
4dd
=18
(>16ddLL
16cc#X)
(>16cc#
16b-JJ)
4b-
=19
32b-LLL
32ccnJ
16b-
16a
16gJJ
16f#XLL
16d
16f#
16aJJ
*>B1
=20
4.g
40ddLLL
40ee
40dd
40cc#X
40ddJJJ
=21
2gg
=22
2bb-
*>B2
=23:|!
2g
==
*-
